X:518
T:Ain't Got No Money
C:Circa Blue
N:TablEdited by Larry Tanner
L:1/8
Q:1/4=200
M:4/4
K:C
D2 ^F2 G2 ^G2 | A2 ^G2 =G2 ^F2 | D2 ^F2 G2 ^G2 | "D"A2 ^GA _B=B c^c | d6 de | 
f^f g^g a2 a2 | d'2 a2 ^f2 dA | z6 AG | ^FG A^c BA Bc | dB ^cd e2 dc | "A"zA z2 [^c2A2] [c2^G2] | 
[^c4G4] ^FA Bc | "D"dA B^c de f^f | "D7"z6 b2 | "G"^fe dA Bd eB | dB GG zA B2 | 
"D"A2 B2 "G"d2 e2 | "E"^fg a=f "A"^f=f ef | "D"d2 A2 B2 c2 | "A"^c8 | z8 | z8 | 
z8 | z8 | 


